X:196
T: Brautwerbung
N: A0233
O: Europa, Mitteleuropa, Deutschland
N: O. Siegf. Harnisch, Newe lustige Teutsche Liedlein. Helmstedt
N: 1591 No. 12. Die Melodie hat Boehme vereinfacht.
R: Romanze, Ballade, Lied
M: 4/4
L: 1/4
K: C
c | cBAG | ccG
G | AAGG | AAG2
FFGF | EDC
c | ccGG | AAG
G | ccGG | AAG2
FFGF | EDC
c | ccB2 | AAG2
AAGG | FFGF | EDC2
cBAG | c2G
G | AAGG | AAGG
AADD | E3

